src/images/crypto-icon-svg/vtc.svg

<svg xmlns="http://www.w3.org/2000/svg" width="32" height="32" viewBox="0 0 32 32">
  <g fill="none" fill-rule="evenodd">
    <circle cx="16" cy="16" r="16" fill="#35633E"/>
    <path fill="#FFF" d="M8.34553152,17.6166803 L8.34766813,17.6151491 L6.22694453,14.656 L12.192,14.656 L15.2603052,18.7470736 L12.3172318,22.9579325 L8.34553152,17.6166803 Z M6.44145554,16.672 L4.464,16.672 L5.52714812,15.3962223 L6.44145554,16.672 Z M12.9461397,23.8037051 L17.1961975,17.722853 L26.7421178,4.14205916 C27.9342668,5.22268522 28.9627426,6.48059539 29.7859327,7.87417714 L29.776,8.048 L16.6008939,26.7481505 C16.5461389,26.8258674 16.4793642,26.8943748 16.4030754,26.9511024 C16.0059792,27.2463791 15.4447001,27.163838 15.1494234,26.7667418 L12.9461397,23.8037051 Z"/>
  </g>
</svg>

<svg xmlns="http://www.w3.org/2000/svg" width="32" height="32"><g fill="none" fill-rule="evenodd"><circle cx="16" cy="16" r="16" fill="#35633E"/><path fill="#FFF" d="M8.346 17.617l.002-.002-2.121-2.959h5.965l3.068 4.091-2.943 4.21-3.971-5.34zm-1.905-.945H4.464l1.063-1.276.914 1.276zm6.505 7.132l4.25-6.081 9.546-13.58a16.073 16.073 0 0 1 3.044 3.731l-.01.174-13.175 18.7a.896.896 0 0 1-1.452.019l-2.203-2.963z"/></g></svg>
